docs/public/logo.svg

<?xml version="1.0" encoding="UTF-8"?>
<svg width="363px" height="133px" viewBox="0 0 363 133" version="1.1" xmlns="http://www.w3.org/2000/svg" xmlns:xlink="http://www.w3.org/1999/xlink">
    <!-- Generator: Sketch 61.2 (89653) - https://sketch.com -->
    <title>Group 12</title>
    <desc>Created with Sketch.</desc>
    <defs>
        <linearGradient x1="45.5380934%" y1="128.962468%" x2="45.5380934%" y2="33.0120396%" id="linearGradient-1">
            <stop stop-color="#5E94F9" offset="0%"></stop>
            <stop stop-color="#114FED" offset="100%"></stop>
        </linearGradient>
        <linearGradient x1="70.463904%" y1="34.1878022%" x2="23.6649228%" y2="74.529696%" id="linearGradient-2">
            <stop stop-color="#FF008E" offset="0%"></stop>
            <stop stop-color="#FF0034" offset="100%"></stop>
        </linearGradient>
    </defs>
    <g id="Page-1" stroke="none" stroke-width="1" fill="none" fill-rule="evenodd">
        <g id="Artboard" transform="translate(-1090.000000, -162.000000)">
            <g id="Group-12" transform="translate(1072.000000, 144.000000)">
                <g id="Group-76" transform="translate(85.000000, 84.000000) scale(-1, -1) rotate(70.000000) translate(-85.000000, -84.000000) translate(20.000000, 18.000000)">
                    <circle id="Oval" fill="#FFFFFF" cx="66.080549" cy="65.5431839" r="34"></circle>
                    <path d="M65.37264,0.55856 C95.7384,0.55856 121.26168,21.28496 128.57184,49.36232 C133.91496,69.30368 121.04136,71.77784 116.2608,64.2992 C112.2456,65.92232 107.76216,70.02128 96.63168,62.876 C95.09064,46.54376 81.3192,34.46048 65.37264,34.46048 C48.03,34.46048 33.97128,48.51992 33.97128,65.86256 C33.97128,83.2052 48.03,97.26392 65.37264,97.26392 C80.0904,97.26392 92.44152,87.13736 95.84304,73.47248 C102.30072,80.91176 106.7772,90.90224 106.7772,96.2924 C106.7772,103.44992 106.99632,113.89352 107.04528,116.14136 C95.73768,125.52416 81.21432,131.16608 65.37264,131.16608 C29.3064,131.16608 0.0684,101.9288 0.0684,65.86256 C0.0684,29.7956 29.3064,0.55856 65.37264,0.55856" id="Fill-59" fill="url(#linearGradient-1)"></path>
                    <path d="M122.66184,68.18096 C120.27672,68.13968 117.8316,66.75728 116.2608,64.2992 C109.91808,65.50544 107.76216,70.02128 96.63168,62.876 C95.26704,48.41528 84.31512,37.28864 70.7544,34.92728 C83.07096,36.43832 91.6164,40.01 98.21208,43.8176 C116.10576,54.14888 116.0376,66.78032 122.66184,68.18096" id="Fill-62" fill="#062088"></path>
                    <path d="M126.09192,44.45384 C122.79048,35.15936 117.38808,26.71592 110.30112,19.7936 C98.24256,8.01464 82.23408,1.48016 65.37264,1.48016 C29.8152,1.48016 0.99024,30.30464 0.99024,65.86256 C0.99024,70.9568 1.58424,75.9116 2.70264,80.6648 C0.97464,55.11488 18.90024,15.91592 61.13016,15.0824 C97.00584,14.3744 119.982,37.47584 126.09192,44.45384" id="Fill-63" fill="#062088"></path>
                    <path d="M35.67,55.65248 C34.56984,58.85336 33.97128,62.28824 33.97128,65.86256 C33.97128,83.2052 48.03,97.26392 65.37264,97.26392 C77.65968,97.26392 88.29504,90.20552 93.45312,79.92392 C100.16664,84.96248 105.00288,90.60224 106.7772,96.2924 C106.7772,99.55856 106.8228,103.5092 106.87728,107.0528 C106.20648,110.79464 104.93688,114.94256 103.09608,119.17208 C92.44224,126.72488 79.42656,131.16608 65.37264,131.16608 C60.79464,131.16608 56.32776,130.69328 52.01664,129.79712 C62.34648,128.07608 73.6356,121.7912 73.21848,115.5392 C72.80232,109.28768 63.55416,110.6192 50.22336,116.65088 C16.90632,131.72648 0.75768,82.60976 35.67,55.65248" id="Fill-64" fill="#003FBD"></path>
                    <path d="M80.81712,93.2072 C85.27368,90.68312 89.05296,87.10208 91.81224,82.8032 C96.58536,86.63792 99.96048,95.2208 97.66968,104.98208 C95.5968,113.81192 74.95008,127.37048 67.01064,131.14568 C66.46656,131.15912 65.92008,131.16608 65.37264,131.16608 C65.05896,131.16608 64.74528,131.16392 64.43304,131.15984 C65.25216,130.25504 67.09992,128.69912 70.28496,126.34736 C93.47712,109.22504 80.8176,93.20792 80.8176,93.20792 L80.81712,93.2072 Z" id="Fill-65" fill="#062088"></path>
                    <path d="M91.91904,86.75648 C96.55128,96.44072 91.69992,128.3936 52.0104,129.79784 C56.32368,130.6952 60.79344,131.16608 65.37264,131.16608 C124.55784,131.16608 146.04504,64.5488 91.11432,47.8736 C70.41432,41.5904 48.85032,47.56064 34.08216,63.19904 C-1.65072,101.03624 44.0964,136.85888 60.17904,96.83672 C69.5088,73.61816 87.28752,77.07272 91.91904,86.75648" id="Fill-66" fill="#54E3F6"></path>
                    <path d="M91.91904,86.75648 C96.55128,96.44072 91.69992,128.3936 52.0104,129.79784 C56.32368,130.6952 60.79344,131.16608 65.37264,131.16608 C80.34696,131.16608 92.90208,126.89768 102.42312,120.2564 C102.6504,119.89736 102.87552,119.53592 103.09608,119.17208 C115.46952,98.76536 104.06136,78.99872 87.94392,77.88776 C71.826,76.77608 66.65352,85.90256 66.65352,85.90256 L66.65496,85.904 C76.1256,75.26048 88.21896,79.01912 91.91904,86.75648" id="Fill-69" fill="#2377EF"></path>
                    <path d="M119.91264,73.25816 C115.29336,60.37376 103.52856,52.69232 90.82248,48.83504 C70.5396,42.67736 49.33416,48.51176 34.81272,63.88904 C26.70264,72.47648 19.98456,84.2924 22.18752,96.48296 C25.54968,115.08752 46.99176,118.40336 48.20688,101.09072 C48.68448,94.28216 50.2008,88.41848 52.49352,83.43584 C65.87112,54.36464 105.6852,55.27064 119.91264,73.25816" id="Fill-70" fill="#2377EF"></path>
                </g>
                <circle id="Oval" fill="url(#linearGradient-2)" style="mix-blend-mode: color;" cx="84.5" cy="84.5" r="66.5"></circle>
                <path d="M188.74,123 L188.74,92.445 C188.74,82.26 196.09,77.115 203.965,77.115 C211.42,77.115 216.145,82.05 216.145,90.765 L216.145,123 L227.485,123 L227.485,89.61 C227.485,74.7 217.825,67.035 205.645,67.035 C192.415,67.035 188.74,75.435 188.74,75.435 L188.74,49.815 L177.4,51.705 L177.4,123 L188.74,123 Z M259.385,124.575 C268.205,124.575 273.98,121.11 277.55,117.435 L277.445,123 L288.89,123 L288.89,68.715 L277.655,68.715 L277.655,73.965 C273.875,70.185 267.26,67.14 259.385,67.14 C242.795,67.14 231.035,80.055 231.035,95.91 C231.035,111.765 242.795,124.575 259.385,124.575 Z M260.225,114.495 C250.04,114.495 242.375,106.095 242.375,95.805 C242.375,85.515 250.04,77.22 260.225,77.22 C270.305,77.22 278.285,84.045 278.285,95.805 C278.285,107.67 270.305,114.495 260.225,114.495 Z M305.135,123 L305.135,95.805 C305.345,84.255 313.64,76.38 327.395,76.38 L327.395,67.035 C315.845,67.035 307.655,72.495 305.135,79.11 L305.135,68.61 L293.795,68.61 L293.795,123 L305.135,123 Z M380.145,101.055 L380.145,68.715 L368.805,68.715 L368.805634,101.385789 C368.824362,101.898066 369.1557,114.705 355.47,114.705 C341.505,114.705 342.135,101.37 342.135,101.37 L342.135,68.715 L330.795,68.715 L330.795,101.055 C330.795,123.693 347.93814,124.64997 355.047501,124.679194 L355.892499,124.679194 C363.00186,124.64997 380.145,123.693 380.145,101.055 Z" id="haru" fill="#000000" fill-rule="nonzero"></path>
            </g>
        </g>
    </g>
</svg>

<svg viewBox="0 0 363 133" xmlns="http://www.w3.org/2000/svg">
    <defs>
        <linearGradient x1="45.538%" y1="128.962%" x2="45.538%" y2="33.012%" id="prefix__a">
            <stop stop-color="#5E94F9" offset="0%"/>
            <stop stop-color="#114FED" offset="100%"/>
        </linearGradient>
        <linearGradient x1="70.464%" y1="34.188%" x2="23.665%" y2="74.53%" id="prefix__b">
            <stop stop-color="#FF008E" offset="0%"/>
            <stop stop-color="#FF0034" offset="100%"/>
        </linearGradient>
    </defs>
    <g transform="translate(-18 -18)" fill="none" fill-rule="evenodd">
        <g transform="rotate(-110 81.302 67.998)">
            <circle fill="#FFF" cx="66.081" cy="65.543" r="34"/>
            <path d="M65.373.559c30.365 0 55.889 20.726 63.199 48.803 5.343 19.942-7.53 22.416-12.311 14.937-4.015 1.623-8.499 5.722-19.63-1.423C95.092 46.544 81.32 34.46 65.374 34.46c-17.343 0-31.402 14.06-31.402 31.403 0 17.342 14.059 31.4 31.402 31.4 14.717 0 27.069-10.126 30.47-23.79 6.458 7.439 10.934 17.43 10.934 22.82 0 7.157.22 17.6.268 19.848-11.307 9.383-25.83 15.025-41.672 15.025-36.067 0-65.305-29.237-65.305-65.303C.068 29.796 29.306.559 65.373.559" fill="url(#prefix__a)"/>
            <path d="M122.662 68.181c-2.385-.041-4.83-1.424-6.401-3.882-6.343 1.206-8.499 5.722-19.63-1.423-1.364-14.46-12.316-25.587-25.877-27.949 12.317 1.511 20.862 5.083 27.458 8.89 17.894 10.332 17.826 22.963 24.45 24.364" fill="#062088"/>
            <path d="M126.092 44.454a64.821 64.821 0 00-15.79-24.66C98.241 8.014 82.233 1.48 65.371 1.48 29.816 1.48.99 30.305.99 65.863c0 5.094.594 10.049 1.713 14.802C.975 55.115 18.9 15.915 61.13 15.082c35.876-.708 58.852 22.394 64.962 29.372" fill="#062088"/>
            <path d="M35.67 55.652a31.356 31.356 0 00-1.699 10.21c0 17.343 14.059 31.402 31.402 31.402 12.287 0 22.922-7.058 28.08-17.34 6.714 5.038 11.55 10.678 13.324 16.368 0 3.267.046 7.217.1 10.76-.67 3.743-1.94 7.89-3.78 12.12-10.655 7.553-23.67 11.994-37.724 11.994a65.58 65.58 0 01-13.356-1.369c10.33-1.72 21.619-8.006 21.201-14.258-.416-6.251-9.664-4.92-22.995 1.112C16.906 131.726.758 82.61 35.67 55.652" fill="#003FBD"/>
            <path d="M80.817 93.207a31.563 31.563 0 0010.995-10.404c4.773 3.835 8.148 12.418 5.858 22.18-2.073 8.829-22.72 22.387-30.66 26.163a66.355 66.355 0 01-2.577.014c.82-.905 2.667-2.46 5.852-4.813 23.192-17.122 10.533-33.14 10.533-33.14z" fill="#062088"/>
            <path d="M91.919 86.756c4.632 9.685-.22 41.638-39.909 43.042a65.552 65.552 0 0013.363 1.368c59.185 0 80.672-66.617 25.741-83.292-20.7-6.284-42.264-.313-57.032 15.325-35.733 37.837 10.014 73.66 26.097 33.638 9.33-23.219 27.109-19.764 31.74-10.08" fill="#54E3F6"/>
            <path d="M91.919 86.756c4.632 9.685-.22 41.638-39.909 43.042a65.552 65.552 0 0013.363 1.368c14.974 0 27.53-4.268 37.05-10.91.227-.359.453-.72.673-1.084 12.374-20.407.965-40.173-15.152-41.284-16.118-1.112-21.29 8.015-21.29 8.015l.001.001c9.47-10.644 21.564-6.885 25.264.852" fill="#2377EF"/>
            <path d="M119.913 73.258c-4.62-12.884-16.384-20.566-29.09-24.423-20.283-6.158-41.489-.323-56.01 15.054-8.11 8.587-14.828 20.403-12.625 32.594 3.362 18.605 24.804 21.92 26.019 4.608.477-6.809 1.994-12.673 4.287-17.655 13.377-29.071 53.191-28.165 67.419-10.178" fill="#2377EF"/>
        </g>
        <circle fill="url(#prefix__b)" style="mix-blend-mode:color" cx="84.5" cy="84.5" r="66.5"/>
        <path d="M188.74 123V92.445c0-10.185 7.35-15.33 15.225-15.33 7.455 0 12.18 4.935 12.18 13.65V123h11.34V89.61c0-14.91-9.66-22.575-21.84-22.575-13.23 0-16.905 8.4-16.905 8.4v-25.62l-11.34 1.89V123h11.34zm70.645 1.575c8.82 0 14.595-3.465 18.165-7.14l-.105 5.565h11.445V68.715h-11.235v5.25c-3.78-3.78-10.395-6.825-18.27-6.825-16.59 0-28.35 12.915-28.35 28.77s11.76 28.665 28.35 28.665zm.84-10.08c-10.185 0-17.85-8.4-17.85-18.69 0-10.29 7.665-18.585 17.85-18.585 10.08 0 18.06 6.825 18.06 18.585 0 11.865-7.98 18.69-18.06 18.69zm44.91 8.505V95.805c.21-11.55 8.505-19.425 22.26-19.425v-9.345c-11.55 0-19.74 5.46-22.26 12.075v-10.5h-11.34V123h11.34zm75.01-21.945v-32.34h-11.34v32.67c.02.513.35 13.32-13.335 13.32-13.965 0-13.335-13.335-13.335-13.335V68.715h-11.34v32.34c0 22.638 17.143 23.595 24.253 23.624h.844c7.11-.029 24.253-.986 24.253-23.624z" fill="#000" fill-rule="nonzero"/>
    </g>
</svg>
